X: 3446
T: Better Get Out Of My Way
R: reel
M: 4/4
K: Gmajor
(3DEF|:"G" G2 G2 B2 B2|"C" cBcd e2 A2|"G" d2 B2 B2 B2|"D" cBA cBA BG|
"G" GBAc BAGB|"C" cBcd efge|"D" dged BAFD|1 "G" G3 G3 (3DEF:|2 "G" G3 G3 g2|
|:"D" fefe f a2 a|"C" g2 gg "G" gedB|"C" cBcd efge|"G" d2 B2 "D" A2 A2|
"G" GBAc BAGB|"C" cBcd efge|1 "G" dged "D" BAFD|"G" G3 G3 ag|:|
[2 "D" d2 D2 EDEF|"G" G3 G3||

